Icons/jp_naver_line_android.svg

<svg viewBox="0 0 48 48" xmlns:xlink="http://www.w3.org/1999/xlink">
 <defs>
  <linearGradient id="0">
   <stop stop-opacity="0"/>
   <stop offset="1"/>
  </linearGradient>
  <linearGradient xlink:href="#0" id="1" gradientUnits="userSpaceOnUse" gradientTransform="translate(4e-7,-48)" y1="47" x2="0" y2="1"/>
  <clipPath id="2">
   <g transform="translate(0,-1004.3622)">
    <rect rx="4" y="1005.36" x="1" height="46" width="46" fill="#1890d0"/>
   </g>
  </clipPath>
  <clipPath id="3">
   <g transform="translate(0,-1004.3622)">
    <rect rx="4" y="1005.36" x="1" height="46" width="46" fill="#1890d0"/>
   </g>
  </clipPath>
 </defs>
 <g>
  <g transform="translate(0,-1004.3622)">
   <path d="m 5,1006.3622 c -2.216,0 -4,1.784 -4,4 l 0,37.25 c 0,2.216 1.784,4 4,4 l 38,0 c 2.216,0 4,-1.784 4,-4 l 0,-37.25 c 0,-2.216 -1.784,-4 -4,-4 l -38,0 z m -4,41.5 0,0.5 c 0,2.216 1.784,4 4,4 l 38,0 c 2.216,0 4,-1.784 4,-4 l 0,-0.5 c 0,2.216 -1.784,4 -4,4 l -38,0 c -2.216,0 -4,-1.784 -4,-4 z" opacity="0.02"/>
   <path d="m 1,1047.6122 0,0.25 c 0,2.216 1.784,4 4,4 l 38,0 c 2.216,0 4,-1.784 4,-4 l 0,-0.25 c 0,2.216 -1.784,4 -4,4 l -38,0 c -2.216,0 -4,-1.784 -4,-4 z" opacity="0.05"/>
   <rect width="46" height="46" x="1" y="1005.61" rx="4" opacity="0.1"/>
  </g>
 </g>
 <g>
  <g transform="translate(0,-1004.3622)">
   <rect rx="4" y="1005.36" x="1" height="46" width="46" fill="#66d511"/>
  </g>
 </g>
 <g>
  <rect transform="scale(1,-1)" width="46" height="46" x="1" y="-46.998" rx="4" opacity="0.1" fill="url(#1)"/>
 </g>
 <g>
  <g clip-path="url(#2)">
   <g opacity="0.1">
    <g>
     <path d="M 24.410156 11.007812 C 24.019531 10.988281 23.625 11.011719 23.222656 11.039062 C 21.605469 11.15625 19.992188 11.625 18.566406 12.445312 C 15.800781 14.027344 13.816406 16.777344 13.1875 19.910156 C 13.015625 20.765625 13 21.101562 13 22.160156 C 13 22.90625 12.996094 23.179688 13.03125 23.441406 C 14.015625 29.828125 18.371094 32.136719 24.003906 32.90625 C 24.027344 32.921875 24.003906 33.785156 24.003906 35.125 C 24.003906 36.121094 23.996094 36.960938 24.003906 36.96875 C 24.015625 36.984375 24.027344 37 24.035156 37 C 26.039062 35.699219 28.394531 34.453125 29.820312 33.15625 C 32.9375 30.292969 34.691406 26.859375 34.980469 23.066406 C 35.015625 22.558594 35 21.316406 34.949219 20.878906 C 34.640625 18.394531 33.605469 16.136719 31.914062 14.378906 C 29.632812 12.34375 27.152344 11.132812 24.410156 11.007812 Z M 20.878906 18.003906 L 21.128906 18.003906 C 21.621094 18.003906 22 18.390625 22 18.878906 L 22 26 L 29.132812 26 C 29.625 26 30.007812 26.386719 30.007812 26.878906 L 30.007812 27.128906 C 30.007812 27.617188 29.625 28 29.132812 28 L 20.878906 28 C 20.386719 28 19.992188 27.617188 20 27.128906 L 20 18.878906 C 20 18.390625 20.386719 18.003906 20.878906 18.003906 Z M 20.878906 18.003906 "/>
    </g>
   </g>
  </g>
 </g>
 <g>
  <g clip-path="url(#3)">
   <g transform="translate(0,-1)">
    <g>
     <path d="M 24.410156 11.007812 C 24.019531 10.988281 23.625 11.011719 23.222656 11.039062 C 21.605469 11.15625 19.992188 11.625 18.566406 12.445312 C 15.800781 14.027344 13.816406 16.777344 13.1875 19.910156 C 13.015625 20.765625 13 21.101562 13 22.160156 C 13 22.90625 12.996094 23.179688 13.03125 23.441406 C 14.015625 29.828125 18.371094 32.136719 24.003906 32.90625 C 24.027344 32.921875 24.003906 33.785156 24.003906 35.125 C 24.003906 36.121094 23.996094 36.960938 24.003906 36.96875 C 24.015625 36.984375 24.027344 37 24.035156 37 C 26.039062 35.699219 28.394531 34.453125 29.820312 33.15625 C 32.9375 30.292969 34.691406 26.859375 34.980469 23.066406 C 35.015625 22.558594 35 21.316406 34.949219 20.878906 C 34.640625 18.394531 33.605469 16.136719 31.914062 14.378906 C 29.632812 12.34375 27.152344 11.132812 24.410156 11.007812 Z M 20.878906 18.003906 L 21.128906 18.003906 C 21.621094 18.003906 22 18.390625 22 18.878906 L 22 26 L 29.132812 26 C 29.625 26 30.007812 26.386719 30.007812 26.878906 L 30.007812 27.128906 C 30.007812 27.617188 29.625 28 29.132812 28 L 20.878906 28 C 20.386719 28 19.992188 27.617188 20 27.128906 L 20 18.878906 C 20 18.390625 20.386719 18.003906 20.878906 18.003906 Z M 20.878906 18.003906 " fill="#f9f9f9"/>
    </g>
   </g>
  </g>
 </g>
 <g>
  <g transform="translate(0,-1004.3622)">
   <path d="m 1,1043.3622 0,4 c 0,2.216 1.784,4 4,4 l 38,0 c 2.216,0 4,-1.784 4,-4 l 0,-4 c 0,2.216 -1.784,4 -4,4 l -38,0 c -2.216,0 -4,-1.784 -4,-4 z" opacity="0.1"/>
  </g>
 </g>
</svg>

<svg viewBox="0 0 48 48"><defs><linearGradient id="linearGradient3764" x1="1" x2="47" gradientUnits="userSpaceOnUse" gradientTransform="translate(-48.000001,0.00221467)"><stop stop-color="#5bc210" stop-opacity="1"/><stop offset="1" stop-color="#66d511" stop-opacity="1"/></linearGradient><clipPath id="clipPath-241003291"><g transform="translate(0,-1004.3622)"><rect rx="4" y="1005.36" x="1" height="46" width="46" fill="#1890d0"/></g></clipPath><clipPath id="clipPath-263526863"><g transform="translate(0,-1004.3622)"><rect rx="4" y="1005.36" x="1" height="46" width="46" fill="#1890d0"/></g></clipPath></defs><g><path d="m 1 43 l 0 0.25 c 0 2.216 1.784 4 4 4 l 38 0 c 2.216 0 4 -1.784 4 -4 l 0 -0.25 c 0 2.216 -1.784 4 -4 4 l -38 0 c -2.216 0 -4 -1.784 -4 -4 z m 0 0.5 l 0 0.5 c 0 2.216 1.784 4 4 4 l 38 0 c 2.216 0 4 -1.784 4 -4 l 0 -0.5 c 0 2.216 -1.784 4 -4 4 l -38 0 c -2.216 0 -4 -1.784 -4 -4 z" opacity="0.02"/><path d="m 1 43.25 l 0 0.25 c 0 2.216 1.784 4 4 4 l 38 0 c 2.216 0 4 -1.784 4 -4 l 0 -0.25 c 0 2.216 -1.784 4 -4 4 l -38 0 c -2.216 0 -4 -1.784 -4 -4 z" opacity="0.05"/><path d="m 1 43 l 0 0.25 c 0 2.216 1.784 4 4 4 l 38 0 c 2.216 0 4 -1.784 4 -4 l 0 -0.25 c 0 2.216 -1.784 4 -4 4 l -38 0 c -2.216 0 -4 -1.784 -4 -4 z" opacity="0.1"/></g><g><rect width="46" height="46" x="-47" y="1" rx="4" transform="matrix(0,-1,1,0,0,0)" fill="url(#linearGradient3764)" fill-opacity="1"/></g><g><g clip-path="url(#clipPath-241003291)"><g opacity="0.1"><!-- color: #66d511 --><g><path d="m 24.41 11.01 c -0.391 -0.02 -0.785 0.004 -1.188 0.031 c -1.617 0.117 -3.23 0.586 -4.656 1.406 c -2.766 1.582 -4.75 4.332 -5.379 7.465 c -0.172 0.855 -0.188 1.191 -0.188 2.25 c 0 0.746 -0.004 1.02 0.031 1.281 c 0.984 6.387 5.34 8.695 10.973 9.465 c 0.023 0.016 0 0.879 0 2.219 c 0 0.996 -0.008 1.836 0 1.844 c 0.012 0.016 0.023 0.031 0.031 0.031 c 2 -1.301 4.359 -2.547 5.785 -3.844 c 3.117 -2.863 4.871 -6.297 5.16 -10.09 c 0.035 -0.508 0.02 -1.75 -0.031 -2.188 c -0.309 -2.484 -1.344 -4.742 -3.035 -6.5 c -2.281 -2.035 -4.762 -3.246 -7.504 -3.371 m -3.531 6.996 l 0.25 0 c 0.492 0 0.871 0.387 0.871 0.875 l 0 7.121 l 7.133 0 c 0.492 0 0.875 0.387 0.875 0.879 l 0 0.25 c 0 0.488 -0.383 0.871 -0.875 0.871 l -8.254 0 c -0.492 0 -0.887 -0.383 -0.879 -0.871 l 0 -8.25 c 0 -0.488 0.387 -0.875 0.879 -0.875 m 0 0" fill="#000"/></g></g></g></g><g><g clip-path="url(#clipPath-263526863)"><g transform="translate(0,-1)"><!-- color: #66d511 --><g><path d="m 24.41 11.01 c -0.391 -0.02 -0.785 0.004 -1.188 0.031 c -1.617 0.117 -3.23 0.586 -4.656 1.406 c -2.766 1.582 -4.75 4.332 -5.379 7.465 c -0.172 0.855 -0.188 1.191 -0.188 2.25 c 0 0.746 -0.004 1.02 0.031 1.281 c 0.984 6.387 5.34 8.695 10.973 9.465 c 0.023 0.016 0 0.879 0 2.219 c 0 0.996 -0.008 1.836 0 1.844 c 0.012 0.016 0.023 0.031 0.031 0.031 c 2 -1.301 4.359 -2.547 5.785 -3.844 c 3.117 -2.863 4.871 -6.297 5.16 -10.09 c 0.035 -0.508 0.02 -1.75 -0.031 -2.188 c -0.309 -2.484 -1.344 -4.742 -3.035 -6.5 c -2.281 -2.035 -4.762 -3.246 -7.504 -3.371 m -3.531 6.996 l 0.25 0 c 0.492 0 0.871 0.387 0.871 0.875 l 0 7.121 l 7.133 0 c 0.492 0 0.875 0.387 0.875 0.879 l 0 0.25 c 0 0.488 -0.383 0.871 -0.875 0.871 l -8.254 0 c -0.492 0 -0.887 -0.383 -0.879 -0.871 l 0 -8.25 c 0 -0.488 0.387 -0.875 0.879 -0.875 m 0 0" fill="#f9f9f9"/></g></g></g></g><g><g transform="translate(0,-1004.3622)"><path d="m 1 1043.36 0 4 c 0 2.216 1.784 4 4 4 l 38 0 c 2.216 0 4 -1.784 4 -4 l 0 -4 c 0 2.216 -1.784 4 -4 4 l -38 0 c -2.216 0 -4 -1.784 -4 -4 z" opacity="0.1"/></g></g></svg>
